X: 1
%
U:~=!turn!
T: Aberarder Rant
C:Pipe tune
O:Scotland
B:Keith Norman MacDonald : "The Skye collection of the best reels & strathspeys extant" : 1887
Z:Ralph Palmer
R:Reel
M:C
L:1/8
K:A mix
B | d2 ag f2 ef | d2 dB d2 de | d2 ag f2 ef | A<AeA cAA :: B | d2 fd B<BfB |
dBfB dBB>c | [1 d2 [fg]B B<BfB | c<AeA cAA :| [2 dcde faef | A<AeA cAA |]


